resources/haticons/SVG/lightbulb_outline.svg

<!-- Generated by IcoMoon.io -->
<svg version="1.1" xmlns="http://www.w3.org/2000/svg" width="24" height="24" viewBox="0 0 24 24">
<title>lightbulb_outline</title>
<path d="M14.859 13.078q2.156-1.5 2.156-4.078 0-2.063-1.477-3.539t-3.539-1.477-3.539 1.477-1.477 3.539q0 1.078 0.633 2.25t1.523 1.828l0.844 0.609v2.297h4.031v-2.297zM12 2.016q2.906 0 4.945 2.039t2.039 4.945q0 3.656-3 5.719v2.297q0 0.422-0.281 0.703t-0.703 0.281h-6q-0.422 0-0.703-0.281t-0.281-0.703v-2.297q-3-2.063-3-5.719 0-2.906 2.039-4.945t4.945-2.039zM9 21v-0.984h6v0.984q0 0.422-0.281 0.703t-0.703 0.281h-4.031q-0.422 0-0.703-0.281t-0.281-0.703z"></path>
</svg>

<svg xmlns="http://www.w3.org/2000/svg" width="24" height="24"><path d="M14.859 13.078q2.156-1.5 2.156-4.078 0-2.063-1.477-3.539t-3.539-1.477T8.46 5.461 6.983 9q0 1.078.633 2.25t1.523 1.828l.844.609v2.297h4.031v-2.297zM12 2.016q2.906 0 4.945 2.039T18.984 9q0 3.656-3 5.719v2.297q0 .422-.281.703T15 18H9q-.422 0-.703-.281t-.281-.703v-2.297q-3-2.063-3-5.719 0-2.906 2.039-4.945T12 2.016zM9 21v-.984h6V21q0 .422-.281.703t-.703.281H9.985q-.422 0-.703-.281T9.001 21z"/></svg>
